X:1
T:Edo Lullaby
C:Trad Japanese lullaby (pre-1900)
S:Public domain or original as noted in notes.md
M:3/4
L:1/8
Q:1/4=54
K:Dmin
H:D minor starter arrangement for Shakuhachi (D). Refs #1
D2 F2 A2 | G4 F2 | D2 F2 G2 | A6 |
c2 A2 G2 | F4 D2 | F2 G2 A2 | D6 |
D2 F2 A2 | c4 A2 | G2 F2 D2 | F6 |
G2 A2 c2 | A4 G2 | F2 D2 F2 | D6 |]
